X:3041
T:Job of Journeywork, The
O:england
R:set dance
M:C|
K:Dmix
(3gfe|:dcAG FGAB|(3cBA BG A2 (3gfe|d2 (3gfe dcAF|GBAF DEFG|
~A3F GFEF|~D3E FGAF|A2d2 (3gfe d^c|1 d2d^c d2 (3gfe:|2 d2d^c d2de||
|:f2 (3def gfe^c|d^cde fdA2|f2 (3def gfed|fagf g2 (3efg|
afge ~f3e|d^cde fgfe|dcAG FGAB|(3cBA BG A2 (3gfe|d2 (3gfe dcAF|GBAF DEFG|
~A3F GFEF|~D3E FGAF|A2d2 (3gfe d^c|1 d2d^c d2de:|2 d2d^c d2||
"variations"
(3gfe|:dcAG FGAB|cABG A2 (3gfe|d2 (3gfe dcAF|GA (3GFE DEFG|
A2 (3AGF GFEF|~D3E FGAF|A2d2 ^cdec|1 d2de d2 (3gfe:|2 d2de d2de||
|:f2ef gfed|ded^c A2de|f2ef gfed|ded^c defg|
ag (3fga gfef|d2de fgfe|dcAG FGAB|(3cBA BG A2 (3gfe|d2 (3gfe dcAF|GA (3GFE DEFG|
(3ABA (3AGF GFEF|~D3E FGAF|A2d2 ^cdec|1 d2de d2de:|2 d2de d2||


